Catalina-dark/actions/16/folder-move.svg

<?xml version="1.0" encoding="UTF-8" standalone="no"?>
<svg
   xmlns:dc="http://purl.org/dc/elements/1.1/"
   xmlns:cc="http://creativecommons.org/ns#"
   xmlns:rdf="http://www.w3.org/1999/02/22-rdf-syntax-ns#"
   xmlns:svg="http://www.w3.org/2000/svg"
   xmlns="http://www.w3.org/2000/svg"
   xmlns:sodipodi="http://sodipodi.sourceforge.net/DTD/sodipodi-0.dtd"
   xmlns:inkscape="http://www.inkscape.org/namespaces/inkscape"
   width="16"
   height="16"
   version="1.1"
   id="svg9"
   sodipodi:docname="folder-move.svg"
   inkscape:version="0.92.4 5da689c313, 2019-01-14">
  <metadata
     id="metadata13">
    <rdf:RDF>
      <cc:Work
         rdf:about="">
        <dc:format>image/svg+xml</dc:format>
        <dc:type
           rdf:resource="http://purl.org/dc/dcmitype/StillImage" />
      </cc:Work>
    </rdf:RDF>
  </metadata>
  <sodipodi:namedview
     pagecolor="#ffffff"
     bordercolor="#666666"
     borderopacity="1"
     objecttolerance="10"
     gridtolerance="10"
     guidetolerance="10"
     inkscape:pageopacity="0"
     inkscape:pageshadow="2"
     inkscape:window-width="715"
     inkscape:window-height="480"
     id="namedview11"
     showgrid="false"
     inkscape:zoom="14.75"
     inkscape:cx="6.8135593"
     inkscape:cy="8"
     inkscape:window-x="0"
     inkscape:window-y="26"
     inkscape:window-maximized="0"
     inkscape:current-layer="svg9" />
  <defs
     id="defs3">
    <style
       id="current-color-scheme"
       type="text/css">
   .ColorScheme-Text { color:#5c616c; } .ColorScheme-Highlight { color:#5294e2; }
  </style>
  </defs>
  <path
     style="fill:#f1f6f8;fill-opacity:0.8509804"
     class="ColorScheme-Text"
     d="M 1.6035156,1.0058594 C 1.4026226,1.0484546 1,1.2326045 1,1.9140625 L 1,10.091797 C 1,10.091797 1.000558,11 1.7148438,11 l 8.5703122,0 C 10.285156,11 11,11.000407 11,10.091797 L 11,3.9316406 C 11,3.0230301 10.285156,3 10.285156,3 L 7,3 5,1.0058594 l -3.2851562,0 c 0,0 -0.044364,-0.014175 -0.1113282,0 z"
     id="path5" />
  <path
     style="opacity:0.3;fill:#f1f6f8;fill-opacity:0.5857988"
     class="ColorScheme-Text"
     d="m 12,7 0,4.091797 C 12,12.000407 11.285156,12 11.285156,12 L 5,12 5,14.091797 C 5,14.091797 5.000558,15 5.7148438,15 l 8.5703122,0 C 14.285156,15 15,15.000407 15,14.091797 L 15,7.9316406 C 15,7.0230301 14.285156,7 14.285156,7 L 12,7 Z"
     id="path7" />
</svg>

<svg width="16" height="16" version="1.1" xmlns="http://www.w3.org/2000/svg">
<defs>
<style id="current-color-scheme" type="text/css">.ColorScheme-Text { color:#5c616c; } .ColorScheme-Highlight { color:#5294e2; }</style>
</defs>
<path class="ColorScheme-Text" d="m1.6035 1.0059c-0.20089 0.042595-0.60352 0.22675-0.60352 0.9082v8.1777s5.58e-4 0.9082 0.71484 0.9082h8.5703s0.71484 4.07e-4 0.71484-0.9082v-6.1602c0-0.90861-0.71484-0.93164-0.71484-0.93164h-3.2852l-2-1.9941h-3.2852s-0.044364-0.014175-0.11133 0z" fill="#dedede" fill-opacity=".85098"/>
<path class="ColorScheme-Text" d="m12 7v4.0918c0 0.90861-0.71484 0.9082-0.71484 0.9082h-6.2852v2.0918s5.58e-4 0.9082 0.71484 0.9082h8.5703s0.71484 4.07e-4 0.71484-0.9082v-6.1602c0-0.90861-0.71484-0.93164-0.71484-0.93164h-2.2852z" fill="#dedede" fill-opacity=".5858" opacity=".3"/>
</svg>
